X: 2685
T: Banks Of Forth, The
R: strathspey
M: 4/4
K: Bminor
|:F>E|D2 F>G A2 d>e|f>g f/e/d/c/ B3 d|A2 B>c B/A/G/F/ ED|G>A B/A/G/F/ E2 F>E|
D2 F>G A2 d>e|f>g f/e/d/c/ B3 c|de f^g/a/ e3 d/c/|Bc/d/ B>A A2:|
|:A2|dcde f/g/f/g/ ac|BABc d3 F|GFGA (3Bgf ed|cd/e/ d/c/B/A/ A3 A|
BGBd AFDF|GB ef/g/ c3 A|B/d/c/B/ A/G/F/E/ D2 af/e/|ef/g/ f/e/d/c/ d2:|

